public/assets/logo/bg_logo.svg

<svg width="1003" height="1027" viewBox="0 0 1003 1027" fill="none" xmlns="http://www.w3.org/2000/svg">
<path d="M97.73 709.145C115.73 701.535 129.05 690.845 129.05 668.035C129.05 646.175 109 626.925 69.75 626.925H0C5.22 636.665 7.52 645.925 7.52 659.715V745.975C7.52 776.635 6.52 808.235 6.52 808.235H70.84C104.84 808.235 136.62 793.975 136.62 755.485C136.57 727.915 121.12 715.325 97.73 709.145ZM52.41 650.215H60.77C72.46 650.215 82.48 658.055 82.48 673.975C82.48 690.135 72.48 697.975 60.77 697.975H52.41V650.215ZM60.35 784.215H52.41V725.545H60.35C75.8 725.545 88.54 735.545 88.54 754.765C88.54 773.985 75.8 784.235 60.35 784.235V784.215Z" fill="#0B3434"/>
<path d="M234.45 664.705C240.51 673.545 241.55 678.505 241.34 686.055V758.925C241.34 780.265 233.2 787.255 217.74 787.255C203.13 787.255 193.31 780.455 193.31 758.925V690.835L194.15 664.705H141.32C146.54 672.255 147.79 679.065 148.42 687.345V758.735C148.42 792.415 167.42 808.235 212.32 808.235C259.32 808.235 272.04 784.865 272.04 758.365V690.285L272.66 664.705H234.45Z" fill="#0B3434"/>
<path d="M330.3 696.905C330.3 687.525 342.83 683.105 351.81 683.105C365.17 683.105 377.28 687.895 390.65 700.035V667.835C379.476 663.464 367.568 661.278 355.57 661.395C316.52 661.395 288.33 682.005 288.33 707.395C288.33 749.165 363.33 743.645 363.33 770.515C363.33 778.615 353.33 787.255 337.86 787.255C322.39 787.255 303.19 778.795 288.99 765.725V799.035C306.12 805.845 322.61 808.235 339.32 808.235C381.08 808.235 406.56 786.895 406.56 761.125C406.52 710.895 330.3 721.755 330.3 696.905Z" fill="#0B3434"/>
<path d="M420.3 805.105H473.97C468.75 797.565 466.24 790.205 466.24 779.535V712.735C466.24 688.995 467.5 664.735 467.5 664.735H413.83C419.05 672.285 421.35 679.455 421.35 690.135V756.925C421.35 780.615 420.3 805.105 420.3 805.105Z" fill="#0B3434"/>
<path d="M612.62 712.735C612.62 688.995 613.62 664.735 613.62 664.735H575.04C580.26 672.285 582.55 679.645 582.55 690.315V731.715L536.41 664.715H481.49C486.71 672.265 489 679.435 489 690.115V756.905C489 780.645 488 805.115 488 805.115H526.84C521.62 797.575 519.11 790.215 519.11 779.545V715.545L576.54 805.155H613.71C613.71 805.155 612.71 780.685 612.71 756.945L612.62 712.735Z" fill="#0B3434"/>
<path d="M729.98 782.845H682.12V741.995H688.6C704.26 741.995 727.44 743.645 727.44 743.645V721.615C727.44 721.615 704.26 723.275 688.6 723.275H682.12V685.875H699.66C717.66 685.875 746.23 687.705 746.23 687.705V664.705H629.75C634.97 672.255 637.27 679.425 637.27 690.105V756.895C637.27 780.635 636.27 805.105 636.27 805.105H749.27V779.895C740.63 782.295 738.12 782.845 729.98 782.845Z" fill="#0B3434"/>
<path d="M800.31 696.905C800.31 687.525 812.84 683.105 821.82 683.105C835.18 683.105 847.29 687.895 860.66 700.035V667.835C849.486 663.464 837.578 661.278 825.58 661.395C786.53 661.395 758.34 682.005 758.34 707.395C758.34 749.165 833.34 743.645 833.34 770.515C833.34 778.615 823.34 787.255 807.87 787.255C792.4 787.255 773.2 778.795 759 765.725V799.035C776.13 805.845 792.62 808.235 809.33 808.235C851.09 808.235 876.57 786.895 876.57 761.125C876.53 710.895 800.31 721.755 800.31 696.905Z" fill="#0B3434"/>
<path d="M926.02 696.905C926.02 687.525 938.55 683.105 947.53 683.105C960.89 683.105 973 687.895 986.37 700.035V667.835C975.196 663.464 963.288 661.278 951.29 661.395C912.29 661.395 884.05 682.005 884.05 707.395C884.05 749.165 959.05 743.645 959.05 770.515C959.05 778.615 949.05 787.255 933.58 787.255C918.11 787.255 898.91 778.795 884.71 765.725V799.035C901.84 805.845 918.33 808.235 935.04 808.235C976.8 808.235 1002.28 786.895 1002.28 761.125C1002.24 710.895 926.02 721.755 926.02 696.905Z" fill="#0B3434"/>
<path d="M428.498 934.581V884.195C428.498 880.335 427.714 876.988 426.146 874.154C424.638 871.259 422.346 869.028 419.271 867.46C416.195 865.892 412.396 865.108 407.873 865.108C403.652 865.108 399.943 865.832 396.746 867.279C393.611 868.726 391.138 870.626 389.329 872.978C387.58 875.33 386.706 877.863 386.706 880.577H369.971C369.971 877.079 370.875 873.611 372.684 870.174C374.494 866.736 377.087 863.631 380.464 860.856C383.901 858.022 388.002 855.791 392.766 854.162C397.591 852.474 402.958 851.63 408.868 851.63C415.984 851.63 422.256 852.836 427.683 855.248C433.171 857.66 437.453 861.309 440.529 866.194C443.665 871.018 445.232 877.079 445.232 884.376V929.967C445.232 933.224 445.504 936.691 446.047 940.37C446.65 944.049 447.524 947.215 448.67 949.868V951.315H431.211C430.367 949.386 429.704 946.823 429.221 943.626C428.739 940.37 428.498 937.355 428.498 934.581ZM431.392 891.974L431.573 903.734H414.657C409.893 903.734 405.642 904.126 401.903 904.91C398.164 905.634 395.028 906.749 392.495 908.257C389.962 909.765 388.032 911.664 386.706 913.956C385.379 916.187 384.715 918.811 384.715 921.826C384.715 924.901 385.409 927.706 386.796 930.238C388.183 932.771 390.264 934.792 393.038 936.299C395.872 937.747 399.34 938.47 403.44 938.47C408.566 938.47 413.089 937.385 417.009 935.214C420.929 933.043 424.035 930.389 426.327 927.253C428.678 924.117 429.945 921.072 430.126 918.117L437.272 926.168C436.85 928.701 435.704 931.505 433.835 934.581C431.965 937.656 429.462 940.611 426.327 943.445C423.251 946.22 419.572 948.541 415.291 950.411C411.069 952.22 406.305 953.125 400.998 953.125C394.364 953.125 388.545 951.828 383.539 949.235C378.594 946.642 374.735 943.174 371.961 938.832C369.247 934.43 367.89 929.515 367.89 924.087C367.89 918.841 368.915 914.227 370.966 910.247C373.016 906.207 375.971 902.86 379.831 900.206C383.69 897.492 388.334 895.442 393.761 894.055C399.189 892.668 405.25 891.974 411.944 891.974H431.392ZM488.201 872.887V951.315H471.375V853.439H487.296L488.201 872.887ZM484.763 898.668L476.984 898.397C477.044 891.703 477.918 885.522 479.607 879.853C481.295 874.124 483.798 869.149 487.115 864.927C490.432 860.706 494.563 857.449 499.508 855.158C504.453 852.806 510.182 851.63 516.695 851.63C521.278 851.63 525.5 852.293 529.359 853.62C533.219 854.886 536.566 856.906 539.4 859.68C542.235 862.455 544.436 866.013 546.004 870.355C547.572 874.697 548.356 879.943 548.356 886.095V951.315H531.621V886.909C531.621 881.783 530.746 877.682 528.998 874.606C527.309 871.531 524.897 869.299 521.761 867.912C518.625 866.465 514.946 865.741 510.725 865.741C505.78 865.741 501.649 866.616 498.332 868.365C495.015 870.113 492.362 872.526 490.372 875.601C488.381 878.677 486.934 882.205 486.029 886.185C485.185 890.105 484.763 894.266 484.763 898.668ZM548.175 889.441L536.958 892.879C537.018 887.512 537.893 882.356 539.581 877.41C541.33 872.465 543.833 868.063 547.089 864.203C550.406 860.344 554.477 857.298 559.301 855.067C564.126 852.775 569.644 851.63 575.855 851.63C581.102 851.63 585.745 852.323 589.786 853.71C593.887 855.097 597.324 857.238 600.098 860.133C602.933 862.967 605.074 866.616 606.521 871.078C607.968 875.541 608.692 880.848 608.692 886.999V951.315H591.867V886.818C591.867 881.33 590.992 877.079 589.243 874.063C587.555 870.988 585.142 868.847 582.006 867.641C578.931 866.374 575.252 865.741 570.97 865.741C567.292 865.741 564.035 866.374 561.201 867.641C558.367 868.907 555.984 870.656 554.055 872.887C552.125 875.059 550.647 877.561 549.622 880.396C548.657 883.23 548.175 886.245 548.175 889.441ZM674.636 953.125C667.822 953.125 661.641 951.979 656.092 949.687C650.605 947.335 645.87 944.049 641.89 939.827C637.97 935.606 634.955 930.6 632.844 924.811C630.734 919.022 629.678 912.689 629.678 905.815V902.015C629.678 894.055 630.854 886.969 633.206 880.757C635.558 874.486 638.754 869.179 642.795 864.837C646.835 860.495 651.419 857.208 656.545 854.977C661.671 852.745 666.978 851.63 672.465 851.63C679.461 851.63 685.492 852.836 690.557 855.248C695.683 857.66 699.875 861.037 703.131 865.379C706.388 869.661 708.8 874.727 710.368 880.577C711.936 886.366 712.72 892.698 712.72 899.573V907.081H639.629V893.422H695.985V892.155C695.744 887.813 694.839 883.592 693.271 879.491C691.763 875.39 689.351 872.013 686.034 869.36C682.717 866.706 678.195 865.379 672.465 865.379C668.666 865.379 665.168 866.194 661.972 867.822C658.776 869.39 656.032 871.742 653.74 874.878C651.449 878.014 649.67 881.843 648.403 886.366C647.137 890.889 646.504 896.105 646.504 902.015V905.815C646.504 910.458 647.137 914.83 648.403 918.931C649.73 922.972 651.63 926.53 654.102 929.605C656.635 932.681 659.681 935.093 663.239 936.842C666.857 938.591 670.958 939.465 675.541 939.465C681.451 939.465 686.456 938.259 690.557 935.847C694.658 933.435 698.246 930.208 701.322 926.168L711.453 934.219C709.343 937.415 706.659 940.46 703.402 943.355C700.146 946.25 696.136 948.602 691.371 950.411C686.667 952.22 681.089 953.125 674.636 953.125Z" fill="#0B3434"/>
<path d="M334.532 849.738H353.324V968.192C353.324 978.856 351.162 987.954 346.837 995.485C342.511 1003.02 336.471 1008.72 328.716 1012.6C321.035 1016.55 312.161 1018.53 302.094 1018.53C297.918 1018.53 292.997 1017.86 287.329 1016.51C281.737 1015.25 276.218 1013.05 270.775 1009.91C265.406 1006.86 260.894 1002.72 257.24 997.499L268.09 985.194C273.161 991.309 278.456 995.56 283.974 997.946C289.567 1000.33 295.085 1001.53 300.528 1001.53C307.091 1001.53 312.758 1000.29 317.53 997.834C322.303 995.373 325.994 991.719 328.604 986.872C331.289 982.1 332.631 976.209 332.631 969.199V876.359L334.532 849.738ZM251.2 911.594V909.245C251.2 899.998 252.281 891.609 254.444 884.077C256.681 876.471 259.85 869.946 263.952 864.502C268.128 859.059 273.161 854.883 279.052 851.975C284.943 848.992 291.58 847.5 298.962 847.5C306.569 847.5 313.205 848.843 318.873 851.527C324.615 854.137 329.462 857.978 333.414 863.048C337.441 868.045 340.61 874.085 342.922 881.169C345.233 888.253 346.837 896.269 347.731 905.218V915.509C346.911 924.382 345.308 932.361 342.922 939.446C340.61 946.53 337.441 952.57 333.414 957.566C329.462 962.562 324.615 966.403 318.873 969.087C313.131 971.697 306.419 973.002 298.739 973.002C291.505 973.002 284.943 971.474 279.052 968.416C273.236 965.359 268.239 961.071 264.063 955.553C259.888 950.035 256.681 943.547 254.444 936.09C252.281 928.558 251.2 920.393 251.2 911.594ZM271.893 909.245V911.594C271.893 917.634 272.49 923.301 273.683 928.596C274.951 933.89 276.852 938.551 279.388 942.578C281.998 946.604 285.316 949.774 289.343 952.085C293.37 954.322 298.179 955.441 303.772 955.441C310.633 955.441 316.3 953.987 320.774 951.079C325.248 948.17 328.79 944.33 331.4 939.557C334.085 934.785 336.173 929.602 337.664 924.01V897.052C336.844 892.951 335.576 888.999 333.861 885.196C332.221 881.318 330.058 877.888 327.374 874.905C324.764 871.848 321.52 869.424 317.642 867.634C313.765 865.845 309.216 864.95 303.996 864.95C298.329 864.95 293.444 866.143 289.343 868.529C285.316 870.841 281.998 874.047 279.388 878.149C276.852 882.176 274.951 886.874 273.683 892.243C272.49 897.537 271.893 903.204 271.893 909.245Z" fill="#0B3434"/>
<path d="M603.34 316.845C638.015 351.844 657.469 399.118 657.47 448.385V525.505C657.465 527.704 656.81 529.853 655.586 531.68C654.362 533.507 652.625 534.931 650.593 535.773C648.561 536.614 646.326 536.836 644.169 536.409C642.011 535.982 640.028 534.927 638.47 533.375L545.56 440.455L516.56 411.455L487.56 440.455L603.46 556.355C609.7 562.605 618.74 566.495 628.06 567.625C628.5 567.667 628.915 567.854 629.237 568.156C629.56 568.458 629.774 568.859 629.845 569.296C629.916 569.732 629.84 570.18 629.629 570.569C629.418 570.958 629.085 571.266 628.68 571.445C588.473 590.357 544.552 600.056 500.12 599.835C337.3 599.295 203.95 467.765 201.28 304.975C199.879 227.84 228.354 153.15 280.75 96.5251C289 87.5951 303.9 93.3451 303.9 105.525V525.805L468.4 361.325L527.85 301.865L566.12 263.615C563.12 270.615 597.04 310.295 601.25 314.715C601.306 314.777 601.357 314.844 601.4 314.915L601.74 315.255L601.8 315.315L603.12 316.615L603.34 316.845Z" fill="#0B3434"/>
<path d="M800.98 304.515C799.965 377.951 771.933 448.438 722.24 502.515C720.377 504.561 717.936 505.991 715.242 506.618C712.547 507.245 709.726 507.038 707.152 506.025C704.577 505.013 702.371 503.241 700.826 500.947C699.281 498.652 698.47 495.942 698.5 493.175V75.1254L533.71 239.005L524.71 247.935L476.07 296.315L442.19 328.955L436.12 334.615C440.12 327.615 416.77 301.665 406.59 290.955C405.89 290.235 405.26 289.555 404.66 288.955C403.8 288.095 403.05 287.315 402.39 286.625L401.61 285.825C401.35 285.565 401.13 285.345 400.91 285.145C400.744 284.933 400.56 284.736 400.36 284.555L399.9 284.115C399.52 283.695 399.32 283.495 399.32 283.495C364.475 248.477 344.913 201.086 344.91 151.685V57.8054C344.92 53.4433 346.105 49.1646 348.342 45.4196C350.579 41.6747 353.784 38.6021 357.62 36.5254C404.668 10.8497 457.755 -1.70193 511.32 0.185388C673.7 5.61539 803.41 142.065 800.98 304.515Z" fill="#0B3434"/>
<path d="M393.05 376.675C392.96 376.965 392.87 377.245 392.77 377.535C392.62 377.965 392.46 378.405 392.29 378.835C392.12 379.265 391.94 379.705 391.75 380.135L344.93 426.725V293.725C353.23 300.215 382.93 324.895 392.01 351.385C394.88 359.845 395.68 368.435 393.05 376.675Z" fill="#B2D06B"/>
<path d="M657.47 172.205V306.035C657.19 305.825 656.85 305.565 656.47 305.245C656.09 304.925 655.92 304.825 655.61 304.575L655.39 304.405L654.61 303.775C654.02 303.305 653.37 302.775 652.67 302.195L651.67 301.405L650.84 300.705L649.42 299.495C648.7 298.885 647.96 298.235 647.18 297.555L646.97 297.365L645.47 296.015L644.2 294.855L643.91 294.595L643.69 294.395L642.8 293.575L642.3 293.105L641.89 292.715L641.48 292.325C640.93 291.815 640.38 291.325 639.82 290.735C633.135 284.331 626.997 277.381 621.47 269.955L620.05 267.955L619.05 266.455C618.71 265.955 618.38 265.455 618.05 264.945C616.72 262.945 615.47 260.865 614.32 258.775L613.75 257.725C613.56 257.375 613.38 257.025 613.2 256.675C613.02 256.325 612.7 255.675 612.47 255.205V255.145L612.02 254.205L611.92 253.995C611.73 253.615 611.56 253.235 611.39 252.845C611.32 252.705 611.26 252.575 611.2 252.435C611.14 252.295 610.96 251.895 610.85 251.615C610.809 251.534 610.772 251.45 610.74 251.365C610.59 251.015 610.45 250.655 610.31 250.295C610.31 250.425 610.41 250.555 610.47 250.675C609.91 249.315 609.4 247.945 608.95 246.575C606.559 239.844 605.976 232.602 607.26 225.575C607.36 225.095 607.46 224.635 607.58 224.165C607.806 223.222 608.079 222.291 608.4 221.375L657.47 172.205Z" fill="#B2D06B"/>
</svg>

<svg xmlns="http://www.w3.org/2000/svg" viewBox="0 0 1002.24 1063.19"><defs><style>.cls-1,.cls-2,.cls-3{fill:#0b3434;}.cls-2{font-size:185.26px;}.cls-2,.cls-3{font-family:AcademyOpti-Bold, AcademyOpti;font-weight:700;}.cls-3{font-size:229.08px;}.cls-4{fill:#b2d06b;}</style></defs><g id="Layer_2" data-name="Layer 2"><g id="Layer_1-2" data-name="Layer 1"><path class="cls-1" d="M97.73,709.13c18-7.61,31.32-18.3,31.32-41.11,0-21.86-20.05-41.11-59.3-41.11H0c5.22,9.74,7.52,19,7.52,32.79V746c0,30.66-1,62.26-1,62.26H70.79c34,0,65.78-14.26,65.78-52.75C136.57,727.9,121.12,715.31,97.73,709.13ZM52.41,650.2h8.36c11.69,0,21.71,7.84,21.71,23.76,0,16.16-10,24-21.71,24H52.41Zm7.94,134H52.41V725.53h7.94c15.45,0,28.19,10,28.19,29.22S75.8,784.22,60.35,784.22Z"/><path class="cls-1" d="M234.45,664.69c6.06,8.84,7.1,13.8,6.89,21.35v72.87c0,21.34-8.14,28.33-23.6,28.33-14.61,0-24.43-6.8-24.43-28.33V690.82l.84-26.13H141.32c5.22,7.55,6.47,14.36,7.1,22.64v71.39c0,33.68,19,49.5,63.9,49.5,47,0,59.72-23.37,59.72-49.87V690.27l.62-25.58Z"/><path class="cls-1" d="M330.3,696.89c0-9.38,12.53-13.8,21.51-13.8,13.36,0,25.47,4.79,38.84,16.93v-32.2a93.77,93.77,0,0,0-35.08-6.44c-39.05,0-67.24,20.61-67.24,46,0,41.77,75,36.25,75,63.12,0,8.1-10,16.74-25.47,16.74s-34.67-8.46-48.87-21.53V799c17.13,6.81,33.62,9.2,50.33,9.2,41.76,0,67.24-21.34,67.24-47.11C406.52,710.88,330.3,721.74,330.3,696.89Z"/><path class="cls-1" d="M420.3,805.09H474c-5.22-7.54-7.73-14.9-7.73-25.57v-66.8c0-23.74,1.26-48,1.26-48H413.83c5.22,7.55,7.52,14.72,7.52,25.4v66.79C421.35,780.62,420.3,805.09,420.3,805.09Z"/><path class="cls-1" d="M612.62,712.72c0-23.74,1-48,1-48H575c5.22,7.55,7.51,14.91,7.51,25.58v41.4l-46.14-67H481.49c5.22,7.55,7.51,14.72,7.51,25.4v66.79c0,23.74-1,48.21-1,48.21H526.8c-5.22-7.54-7.73-14.9-7.73-25.57v-64l57.43,89.61h37.17s-1-24.47-1-48.21Z"/><path class="cls-1" d="M730,782.83H682.16V742h6.48c15.66,0,38.84,1.65,38.84,1.65V721.55s-23.18,1.66-38.84,1.66h-6.48V685.86H699.7c18,0,46.57,1.83,46.57,1.83v-23H629.75c5.22,7.55,7.52,14.72,7.52,25.4v66.79c0,23.74-1,48.21-1,48.21h113V779.88C740.63,782.28,738.13,782.83,730,782.83Z"/><path class="cls-1" d="M800.31,696.89c0-9.38,12.53-13.8,21.51-13.8,13.36,0,25.47,4.79,38.84,16.93v-32.2a93.77,93.77,0,0,0-35.08-6.44c-39.05,0-67.24,20.61-67.24,46,0,41.77,75,36.25,75,63.12,0,8.1-10,16.74-25.47,16.74s-34.67-8.46-48.87-21.53V799c17.13,6.81,33.62,9.2,50.33,9.2,41.76,0,67.24-21.34,67.24-47.11C876.53,710.88,800.31,721.74,800.31,696.89Z"/><path class="cls-1" d="M926,696.89c0-9.38,12.53-13.8,21.51-13.8,13.36,0,25.47,4.79,38.84,16.93v-32.2a93.77,93.77,0,0,0-35.08-6.44c-39,0-67.24,20.61-67.24,46,0,41.77,75,36.25,75,63.12,0,8.1-10,16.74-25.47,16.74s-34.67-8.46-48.87-21.53V799c17.13,6.81,33.62,9.2,50.33,9.2,41.76,0,67.24-21.34,67.24-47.11C1002.24,710.88,926,721.74,926,696.89Z"/><text class="cls-2" transform="translate(358.03 964.56) scale(1.13 1)">ame</text><text class="cls-3" transform="translate(240.35 987.83) scale(0.91 1)">g</text><path class="cls-1" d="M603.34,316.83a186.88,186.88,0,0,1,54.13,131.53v77.12a11.14,11.14,0,0,1-19,7.87l-92.91-92.91-29-29-29,29,115.9,115.9c6.24,6.24,15.28,10.14,24.6,11.26a2,2,0,0,1,.62,3.83A298.56,298.56,0,0,1,500.1,599.81C337.28,599.27,203.93,467.75,201.26,305A298.93,298.93,0,0,1,280.73,96.51c8.25-8.93,23.15-3.18,23.15,9v420.3L468.38,361.3l59.45-59.45,0,0,38.27-38.23c-3,7,30.92,46.68,35.13,51.1a1.3,1.3,0,0,1,.15.2l.34.33.06.06,1.28,1.26Z"/><path class="cls-1" d="M801,304.5a298.75,298.75,0,0,1-78.74,198,13.65,13.65,0,0,1-23.74-9.34V75.11L533.71,239l-9,8.92,0,0-48.64,48.38L442.18,329l-6.06,5.64c4-7-19.35-33-29.53-43.66-.7-.72-1.33-1.4-1.93-2-.86-.85-1.61-1.63-2.27-2.33l-.78-.79c-.26-.26-.48-.48-.7-.68a4.72,4.72,0,0,0-.55-.6l-.46-.44c-.38-.41-.58-.61-.58-.61a186.89,186.89,0,0,1-54.41-131.82V57.79a24.26,24.26,0,0,1,12.71-21.28A298.78,298.78,0,0,1,511.32.17C673.7,5.56,803.41,142,801,304.5Z"/><path class="cls-4" d="M393.05,376.66c-.09.29-.18.57-.28.86h0c-.15.43-.31.87-.48,1.3s-.35.87-.54,1.3a.06.06,0,0,0,0,0l-46.82,46.59v-133c8.3,6.49,38,31.17,47.08,57.66C394.88,359.83,395.68,368.42,393.05,376.66Z"/><path class="cls-4" d="M657.47,172.19V306c-.28-.21-.62-.47-1-.79s-.55-.42-.86-.67l-.22-.17-.78-.63c-.59-.47-1.24-1-1.94-1.58l-1-.79-.83-.7-1.42-1.21,0,0c-.72-.61-1.46-1.26-2.24-1.94l-.21-.19-1.5-1.35-1.27-1.16-.29-.26-.22-.2-.89-.82-.5-.47-.41-.39-.41-.39c-.55-.51-1.1-1-1.66-1.59a166.21,166.21,0,0,1-18.35-20.78l-1.42-2-1-1.5c-.34-.5-.67-1-1-1.51-1.33-2-2.58-4.08-3.73-6.17l-.57-1.05c-.19-.35-.37-.7-.55-1s-.5-1-.73-1.47l0-.06-.45-.94-.1-.21c-.19-.38-.36-.76-.53-1.15-.07-.14-.13-.27-.19-.41s-.24-.54-.35-.82a2.72,2.72,0,0,1-.11-.25c-.15-.35-.29-.71-.43-1.07,0,.13.1.26.16.38-.56-1.36-1.07-2.73-1.52-4.1a40.82,40.82,0,0,1-1.69-21c.1-.48.2-.94.32-1.41a28.56,28.56,0,0,1,.82-2.79v0Z"/></g></g></svg>
